!!!SOCIAL_FUNCTION:	songs used in the treatment of the sick
!!!PDT:	1929
!!!OTL: No_62_Many_Spirits_Leading_Westward.krn
!!!REG: Southwest
!!!LANG: Non-Tone
!!!LING_GROUP: Uto-Aztecan
**kern
*staff1
=1-
*clefF4
*k[b-e-a-d-]
*M3/4
2c\
(8.c\L
16A-\Jk)
=2
2c\
4A-\
=3
8G\L
[8A-\J
4A-\]
12c\L
12c\
12A-\J
=4
2A-\
4G\
=5||
*M2/4
4F\
8.A-\L
16A-\Jk
=6
4A-\
8A-\L
8G\J
=7
16F\LL
16F\
16.F\
32D-\JJk
4F\
=8||
*M3/4
2A-\
4G\
=9||
*M2/4
8.F\L
16F\Jk
8.F\L
16D-\Jk
=10
4F\
8.G\L
16F\Jk
=11
4F\
8F\L
8D-\J
=12||
*M3/4
8.F\L
16F\Jk
16F\LK
8.F\J
4F\
=13||
*M2/4
8.F\L
16F\Jk
4F\
=14
[2F\
=15
4F\]
4r
==:|!
*-
